dist/img/rate.svg

<svg width="86" height="14" viewBox="0 0 86 14" fill="none" xmlns="http://www.w3.org/2000/svg">
<g id="Group 62">
<g id="&#240;&#159;&#166;&#134; icon &#34;star&#34;">
<path id="Vector" d="M13.9412 5.04325C13.8743 4.83558 13.7512 4.65048 13.5856 4.50844C13.42 4.36641 13.2183 4.27297 13.0028 4.23848L9.62216 3.68907L8.05497 0.643662C7.95515 0.449786 7.80385 0.287154 7.61767 0.173611C7.4315 0.0600672 7.21765 0 6.99958 0C6.78151 0 6.56766 0.0600672 6.38148 0.173611C6.19531 0.287154 6.04401 0.449786 5.94418 0.643662L4.377 3.68907L0.996381 4.23848C0.781151 4.27351 0.579729 4.36715 0.414215 4.50912C0.248701 4.6511 0.125491 4.83592 0.0581037 5.04331C-0.00928335 5.2507 -0.0182434 5.47264 0.0322066 5.68479C0.0826566 5.89693 0.190567 6.09108 0.344098 6.24594L2.75618 8.6775L2.2341 12.0624C2.2006 12.278 2.2272 12.4987 2.31099 12.7001C2.39478 12.9016 2.53251 13.076 2.70902 13.2043C2.88554 13.3325 3.094 13.4096 3.31149 13.4271C3.52897 13.4445 3.74705 13.4016 3.94175 13.3031L6.99958 11.7605L10.0575 13.3031C10.2522 13.4014 10.4702 13.4441 10.6876 13.4266C10.905 13.4091 11.1134 13.332 11.2899 13.2038C11.4663 13.0756 11.604 12.9012 11.6879 12.6999C11.7717 12.4985 11.7985 12.278 11.7651 12.0624L11.2431 8.6775L13.6551 6.24594C13.8092 6.09138 13.9174 5.89723 13.9679 5.68496C14.0184 5.47269 14.0092 5.2506 13.9412 5.04325Z" fill="#FFC700"/>
</g>
<g id="&#240;&#159;&#166;&#134; icon &#34;star&#34;_2">
<path id="Vector_2" d="M31.9412 5.04325C31.8743 4.83558 31.7512 4.65048 31.5856 4.50844C31.42 4.36641 31.2183 4.27297 31.0028 4.23848L27.6222 3.68907L26.055 0.643662C25.9551 0.449786 25.8038 0.287154 25.6177 0.173611C25.4315 0.0600672 25.2176 0 24.9996 0C24.7815 0 24.5677 0.0600672 24.3815 0.173611C24.1953 0.287154 24.044 0.449786 23.9442 0.643662L22.377 3.68907L18.9964 4.23848C18.7812 4.27351 18.5797 4.36715 18.4142 4.50912C18.2487 4.6511 18.1255 4.83592 18.0581 5.04331C17.9907 5.2507 17.9818 5.47264 18.0322 5.68479C18.0827 5.89693 18.1906 6.09108 18.3441 6.24594L20.7562 8.6775L20.2341 12.0624C20.2006 12.278 20.2272 12.4987 20.311 12.7001C20.3948 12.9016 20.5325 13.076 20.709 13.2043C20.8855 13.3325 21.094 13.4096 21.3115 13.4271C21.529 13.4445 21.7471 13.4016 21.9417 13.3031L24.9996 11.7605L28.0575 13.3031C28.2522 13.4014 28.4702 13.4441 28.6876 13.4266C28.905 13.4091 29.1134 13.332 29.2899 13.2038C29.4663 13.0756 29.604 12.9012 29.6879 12.6999C29.7717 12.4985 29.7985 12.278 29.7651 12.0624L29.2431 8.6775L31.6551 6.24594C31.8092 6.09138 31.9174 5.89723 31.9679 5.68496C32.0184 5.47269 32.0092 5.2506 31.9412 5.04325Z" fill="#FFC700"/>
</g>
<g id="&#240;&#159;&#166;&#134; icon &#34;star&#34;_3">
<path id="Vector_3" d="M49.9412 5.04325C49.8743 4.83558 49.7512 4.65048 49.5856 4.50844C49.42 4.36641 49.2183 4.27297 49.0028 4.23848L45.6222 3.68907L44.055 0.643662C43.9551 0.449786 43.8038 0.287154 43.6177 0.173611C43.4315 0.0600672 43.2176 0 42.9996 0C42.7815 0 42.5677 0.0600672 42.3815 0.173611C42.1953 0.287154 42.044 0.449786 41.9442 0.643662L40.377 3.68907L36.9964 4.23848C36.7812 4.27351 36.5797 4.36715 36.4142 4.50912C36.2487 4.6511 36.1255 4.83592 36.0581 5.04331C35.9907 5.2507 35.9818 5.47264 36.0322 5.68479C36.0827 5.89693 36.1906 6.09108 36.3441 6.24594L38.7562 8.6775L38.2341 12.0624C38.2006 12.278 38.2272 12.4987 38.311 12.7001C38.3948 12.9016 38.5325 13.076 38.709 13.2043C38.8855 13.3325 39.094 13.4096 39.3115 13.4271C39.529 13.4445 39.7471 13.4016 39.9417 13.3031L42.9996 11.7605L46.0575 13.3031C46.2522 13.4014 46.4702 13.4441 46.6876 13.4266C46.905 13.4091 47.1134 13.332 47.2899 13.2038C47.4663 13.0756 47.604 12.9012 47.6879 12.6999C47.7717 12.4985 47.7985 12.278 47.7651 12.0624L47.2431 8.6775L49.6551 6.24594C49.8092 6.09138 49.9174 5.89723 49.9679 5.68496C50.0184 5.47269 50.0092 5.2506 49.9412 5.04325Z" fill="#FFC700"/>
</g>
<g id="&#240;&#159;&#166;&#134; icon &#34;star&#34;_4">
<path id="Vector_4" d="M67.9412 5.04325C67.8743 4.83558 67.7512 4.65048 67.5856 4.50844C67.42 4.36641 67.2183 4.27297 67.0028 4.23848L63.6222 3.68907L62.055 0.643662C61.9551 0.449786 61.8038 0.287154 61.6177 0.173611C61.4315 0.0600672 61.2176 0 60.9996 0C60.7815 0 60.5677 0.0600672 60.3815 0.173611C60.1953 0.287154 60.044 0.449786 59.9442 0.643662L58.377 3.68907L54.9964 4.23848C54.7812 4.27351 54.5797 4.36715 54.4142 4.50912C54.2487 4.6511 54.1255 4.83592 54.0581 5.04331C53.9907 5.2507 53.9818 5.47264 54.0322 5.68479C54.0827 5.89693 54.1906 6.09108 54.3441 6.24594L56.7562 8.6775L56.2341 12.0624C56.2006 12.278 56.2272 12.4987 56.311 12.7001C56.3948 12.9016 56.5325 13.076 56.709 13.2043C56.8855 13.3325 57.094 13.4096 57.3115 13.4271C57.529 13.4445 57.7471 13.4016 57.9417 13.3031L60.9996 11.7605L64.0575 13.3031C64.2522 13.4014 64.4702 13.4441 64.6876 13.4266C64.905 13.4091 65.1134 13.332 65.2899 13.2038C65.4663 13.0756 65.604 12.9012 65.6879 12.6999C65.7717 12.4985 65.7985 12.278 65.7651 12.0624L65.2431 8.6775L67.6551 6.24594C67.8092 6.09138 67.9174 5.89723 67.9679 5.68496C68.0184 5.47269 68.0092 5.2506 67.9412 5.04325Z" fill="#FFC700"/>
</g>
<g id="&#240;&#159;&#166;&#134; icon &#34;star&#34;_5">
<path id="Vector_5" d="M85.9412 5.04325C85.8743 4.83558 85.7512 4.65048 85.5856 4.50844C85.42 4.36641 85.2183 4.27297 85.0028 4.23848L81.6222 3.68907L80.055 0.643662C79.9551 0.449786 79.8038 0.287154 79.6177 0.173611C79.4315 0.0600672 79.2176 0 78.9996 0C78.7815 0 78.5677 0.0600672 78.3815 0.173611C78.1953 0.287154 78.044 0.449786 77.9442 0.643662L76.377 3.68907L72.9964 4.23848C72.7812 4.27351 72.5797 4.36715 72.4142 4.50912C72.2487 4.6511 72.1255 4.83592 72.0581 5.04331C71.9907 5.2507 71.9818 5.47264 72.0322 5.68479C72.0827 5.89693 72.1906 6.09108 72.3441 6.24594L74.7562 8.6775L74.2341 12.0624C74.2006 12.278 74.2272 12.4987 74.311 12.7001C74.3948 12.9016 74.5325 13.076 74.709 13.2043C74.8855 13.3325 75.094 13.4096 75.3115 13.4271C75.529 13.4445 75.7471 13.4016 75.9417 13.3031L78.9996 11.7605L82.0575 13.3031C82.2522 13.4014 82.4702 13.4441 82.6876 13.4266C82.905 13.4091 83.1134 13.332 83.2899 13.2038C83.4663 13.0756 83.604 12.9012 83.6879 12.6999C83.7717 12.4985 83.7985 12.278 83.7651 12.0624L83.2431 8.6775L85.6551 6.24594C85.8092 6.09138 85.9174 5.89723 85.9679 5.68496C86.0184 5.47269 86.0092 5.2506 85.9412 5.04325Z" fill="#D4D4D4"/>
</g>
</g>
</svg>

<svg width="86" height="14" fill="none" xmlns="http://www.w3.org/2000/svg"><path d="M13.941 5.043a1.182 1.182 0 0 0-.938-.805l-3.38-.549L8.054.644a1.187 1.187 0 0 0-2.11 0L4.376 3.689l-3.38.55a1.187 1.187 0 0 0-.653 2.007l2.412 2.431-.522 3.385a1.186 1.186 0 0 0 1.708 1.241L7 11.76l3.057 1.543a1.187 1.187 0 0 0 1.708-1.24l-.522-3.386 2.412-2.431a1.182 1.182 0 0 0 .286-1.203Zm18 0a1.182 1.182 0 0 0-.938-.805l-3.38-.549L26.054.644a1.188 1.188 0 0 0-2.11 0l-1.568 3.045-3.38.55a1.187 1.187 0 0 0-.653 2.007l2.412 2.431-.522 3.385a1.186 1.186 0 0 0 1.708 1.241L25 11.76l3.058 1.543a1.187 1.187 0 0 0 1.707-1.24l-.522-3.386 2.412-2.431a1.182 1.182 0 0 0 .286-1.203Zm18 0a1.182 1.182 0 0 0-.938-.805l-3.38-.549L44.054.644a1.188 1.188 0 0 0-2.11 0l-1.568 3.045-3.38.55a1.187 1.187 0 0 0-.653 2.007l2.412 2.431-.522 3.385a1.186 1.186 0 0 0 1.708 1.241L43 11.76l3.057 1.543a1.187 1.187 0 0 0 1.708-1.24l-.522-3.386 2.412-2.431a1.182 1.182 0 0 0 .286-1.203Zm18 0a1.182 1.182 0 0 0-.938-.805l-3.38-.549L62.054.644a1.188 1.188 0 0 0-2.11 0l-1.568 3.045-3.38.55a1.187 1.187 0 0 0-.653 2.007l2.412 2.431-.522 3.385a1.186 1.186 0 0 0 1.708 1.241L61 11.76l3.058 1.543a1.187 1.187 0 0 0 1.707-1.24l-.522-3.386 2.412-2.431a1.182 1.182 0 0 0 .286-1.203Z" fill="#FFC700"/><path d="M85.941 5.043a1.182 1.182 0 0 0-.938-.805l-3.38-.549L80.054.644a1.188 1.188 0 0 0-2.11 0l-1.568 3.045-3.38.55a1.187 1.187 0 0 0-.653 2.007l2.412 2.431-.522 3.385a1.186 1.186 0 0 0 1.708 1.241L79 11.76l3.058 1.543a1.187 1.187 0 0 0 1.707-1.24l-.522-3.386 2.412-2.431a1.182 1.182 0 0 0 .286-1.203Z" fill="#D4D4D4"/></svg>
